static/assets/images/exchanges/bigone.svg

<svg width="196" height="256" viewBox="0 0 196 256" fill="none" xmlns="http://www.w3.org/2000/svg">
<path fill-rule="evenodd" clip-rule="evenodd" d="M49.25 0.265975C48.7528 0.385486 48.007 0.662341 47.5926 0.880943C47.1783 1.09985 36.9228 8.67645 24.8028 17.7178C2.83506 34.1055 2.76365 34.1625 1.90028 35.9143L1.03421 37.6719L0.945911 109.739C0.885641 159.09 0.959773 183.063 1.18096 185.796C3.25063 211.363 17.2676 233.353 39.6313 246.118C45.2334 249.316 51.6741 251.931 57.9455 253.553C80.5509 259.401 104.51 254.643 123.173 240.597C129.244 236.029 135.529 229.525 139.733 223.459L141.319 221.172L145.006 219.877C160.298 214.507 173.743 204.049 182.949 190.363C185.895 185.983 189.438 179.088 191.194 174.318C192.599 170.5 194.455 163.223 195.105 158.984C195.789 154.524 196.03 145.166 195.577 140.649C194.085 125.768 188.161 111.317 178.784 99.6792C174.302 94.1166 170.476 90.7754 153.352 77.4731C119.788 51.3994 62.6806 6.96367 58.8932 3.9735C54.1238 0.208322 52.3407 -0.477212 49.25 0.265975ZM32.5954 31.7414C26.9367 35.9939 22.3348 39.5672 22.3685 39.6816C22.4023 39.7963 27.0744 43.542 32.7512 48.0056L43.0724 56.1209V40.0651C43.0724 31.2345 43.0299 24.0092 42.9781 24.0092C42.9259 24.0092 38.2538 27.4888 32.5954 31.7414ZM59.0439 46.3352V68.6614L67.3937 75.2369C71.9859 78.8538 76.316 82.2508 77.0157 82.7862L78.288 83.76L80.6446 82.3628C91.1261 76.1485 103.514 72.4299 115.775 71.8176L120.067 71.6032L89.7812 47.8077C73.1244 34.7204 59.3944 24.0116 59.2699 24.0107C59.1454 24.0098 59.0439 34.0559 59.0439 46.3352ZM16.5642 94.3343L16.5748 133.16L17.845 131.659C24.5358 123.752 31.8285 117.66 40.2849 112.916L43.0724 111.352L43.07 93.7295L43.0676 76.1074L30.2184 66.0481C23.1511 60.5155 17.1856 55.8807 16.9614 55.7486C16.6194 55.5474 16.5555 61.7782 16.5642 94.3343ZM111.78 88.2957C106.349 88.9914 98.8446 91.1327 94.1884 93.3142L91.8147 94.4264L105.79 105.409C113.477 111.449 120.986 117.301 122.478 118.413C145.786 135.798 157.286 164.196 152.446 192.412C152.122 194.297 151.647 196.648 151.39 197.638C151.132 198.628 150.986 199.502 151.065 199.58C151.297 199.812 155.564 196.828 158.412 194.443C185.784 171.516 187.404 130.255 161.916 105.187C152.847 96.2671 140.493 90.2027 127.796 88.438C124.158 87.9326 115.233 87.8531 111.78 88.2957ZM59.0535 95.1L59.0629 101.331L59.8352 100.43C60.2601 99.9344 61.4197 98.6141 62.4121 97.4959C63.4044 96.3777 64.5384 95.0814 64.9323 94.615L65.6483 93.767L62.5151 91.3183C60.792 89.9712 59.3061 88.8692 59.213 88.8692C59.1201 88.8692 59.0481 91.6729 59.0535 95.1ZM68.9884 119.663C67.4139 119.884 66.015 120.072 65.88 120.082C65.5099 120.106 63.4523 124.656 62.2581 128.091C60.9981 131.714 59.8223 136.854 59.3251 140.916C58.7356 145.727 59.1177 155.114 60.0905 159.735C62.0164 168.881 65.8598 177.346 71.448 184.752C73.7979 187.866 79.545 193.587 82.7561 196.008C90.1018 201.547 98.6285 205.397 107.862 207.343C113.792 208.594 125.698 208.723 130.356 207.587C130.816 207.475 131.347 206.683 132.207 204.827C134.451 199.977 135.926 195.098 136.992 188.999C137.72 184.832 137.721 174.593 136.994 170.395C135.127 159.607 130.952 150.179 124.429 142.018C122.117 139.125 116.74 133.819 114.04 131.765C105.5 125.27 95.2136 121.013 84.7622 119.648C80.5858 119.102 72.9298 119.11 68.9884 119.663ZM41.415 130.824C38.8656 132.653 34.5771 136.471 32.6572 138.621C24.255 148.032 19.4056 158.036 17.2552 170.395C16.5329 174.547 16.5356 184.789 17.26 189.012C20.6782 208.933 32.5107 225.005 50.3048 233.897C58.8763 238.18 67.2439 240.193 76.5221 240.203C88.6855 240.216 99.2894 237.248 109.449 230.986C112.003 229.411 118.279 224.653 118.06 224.456C118.003 224.406 116.127 224.209 113.889 224.018C103.418 223.127 94.8026 220.735 85.5849 216.16C77.2876 212.041 71.2838 207.665 64.7659 200.984C58.7573 194.825 54.9151 189.366 51.0566 181.505C47.2792 173.809 45.2448 167.312 43.9439 158.791C43.3816 155.106 43.2595 152.685 43.1037 142.112L42.9217 129.744L41.415 130.824Z" fill="#9C64E4"/>
</svg>

<svg xmlns="http://www.w3.org/2000/svg" fill="none" viewBox="0 0 196 256"><path fill="#9C64E4" fill-rule="evenodd" d="M49.25.266a8.6 8.6 0 0 0-1.657.615c-.415.219-10.67 7.795-22.79 16.837C2.835 34.106 2.763 34.163 1.9 35.914l-.866 1.758-.088 72.067c-.06 49.351.014 73.324.235 76.057 2.07 25.567 16.087 47.557 38.45 60.322 5.602 3.198 12.043 5.813 18.315 7.435a76.49 76.49 0 0 0 65.227-12.956c6.071-4.568 12.356-11.072 16.56-17.138l1.586-2.287 3.687-1.295c15.292-5.37 28.737-15.828 37.943-29.514 2.946-4.38 6.489-11.275 8.245-16.045 1.405-3.818 3.261-11.095 3.911-15.334.684-4.46.925-13.818.472-18.335-1.492-14.881-7.416-29.332-16.793-40.97-4.482-5.562-8.308-8.904-25.432-22.206-33.564-26.074-90.671-70.51-94.459-73.5C54.123.209 52.341-.476 49.25.267M32.595 31.741c-5.658 4.253-10.26 7.826-10.226 7.94s4.705 3.861 10.382 8.325l10.321 8.115V40.065c0-8.83-.042-16.056-.094-16.056s-4.724 3.48-10.383 7.732m26.449 14.594v22.326l8.35 6.576c4.592 3.617 8.922 7.014 9.622 7.55l1.272.973 2.357-1.397c10.481-6.215 22.869-9.933 35.13-10.545l4.292-.215-30.286-23.795C73.124 34.72 59.394 24.012 59.27 24.01c-.125-.001-.226 10.045-.226 22.324m-42.48 48 .01 38.825 1.271-1.501c6.69-7.907 13.984-13.999 22.44-18.743l2.787-1.564-.002-17.623-.002-17.622-12.85-10.059c-7.067-5.532-13.032-10.167-13.257-10.3-.342-.2-.405 6.03-.397 38.586m95.216-6.04c-5.431.696-12.935 2.838-17.592 5.02l-2.373 1.111 13.975 10.983c7.687 6.04 15.196 11.892 16.688 13.004 23.308 17.385 34.808 45.783 29.968 73.999-.324 1.885-.799 4.236-1.056 5.226-.258.99-.404 1.864-.325 1.942.232.232 4.499-2.752 7.347-5.137 27.372-22.927 28.992-64.188 3.504-89.256-9.069-8.92-21.423-14.984-34.12-16.749-3.638-.505-12.563-.585-16.016-.142M59.054 95.1l.009 6.231.772-.901c.425-.496 1.585-1.816 2.577-2.934a223 223 0 0 0 2.52-2.881l.716-.848-3.133-2.449c-1.723-1.347-3.209-2.449-3.302-2.449s-.165 2.804-.16 6.231m9.934 24.563c-1.574.221-2.973.409-3.108.419-.37.024-2.428 4.574-3.622 8.009-1.26 3.623-2.436 8.763-2.933 12.825-.59 4.811-.207 14.198.765 18.819 1.926 9.146 5.77 17.611 11.358 25.017 2.35 3.114 8.097 8.835 11.308 11.256 7.346 5.539 15.873 9.389 25.106 11.335 5.93 1.251 17.836 1.38 22.494.244.46-.112.991-.904 1.851-2.76 2.244-4.85 3.719-9.729 4.785-15.828.728-4.167.729-14.406.002-18.604-1.867-10.788-6.042-20.216-12.565-28.377-2.312-2.893-7.689-8.199-10.389-10.253-8.54-6.495-18.826-10.752-29.278-12.117-4.176-.546-11.832-.538-15.774.015m-27.573 11.161c-2.55 1.829-6.838 5.647-8.758 7.797-8.402 9.411-13.251 19.415-15.402 31.774-.722 4.152-.72 14.394.005 18.617 3.418 19.921 15.25 35.993 33.045 44.885 8.571 4.283 16.939 6.296 26.217 6.306 12.164.013 22.767-2.955 32.927-9.217 2.554-1.575 8.83-6.333 8.611-6.53-.057-.05-1.933-.247-4.171-.438-10.471-.891-19.086-3.283-28.304-7.858-8.297-4.119-14.301-8.495-20.82-15.176-6.008-6.159-9.85-11.618-13.708-19.479-3.778-7.696-5.812-14.193-7.113-22.714-.562-3.685-.684-6.106-.84-16.679l-.182-12.368z" clip-rule="evenodd"/></svg>
